pix_core/a/view_tree_active.svg

<!DOCTYPE svg PUBLIC "-//W3C//DTD SVG 1.1//EN" "http://www.w3.org/Graphics/SVG/1.1/DTD/svg11.dtd" [
	<!ENTITY ns_flows "http://ns.adobe.com/Flows/1.0/">
]><svg xmlns="http://www.w3.org/2000/svg" width="16" height="16" viewBox="0 -1 16 16" preserveAspectRatio="xMinYMid meet" overflow="visible" enable-background="new 0 -1 16 16"><path d="M10 12h6v2h-6v-2zm-2 2v-2h-2v2h2zm0-4h8v-2h-8v2zm-4-2v2h2v-2h-2zm2-2h10v-2h-10v2zm-4-2v2h2v-2h-2zm2-4v2h12v-2h-12zm-2 0h-2v2h2v-2z" fill="#999"/></svg>

<!DOCTYPE svg PUBLIC "-//W3C//DTD SVG 1.1//EN" "http://www.w3.org/Graphics/SVG/1.1/DTD/svg11.dtd" [
	<!ENTITY ns_flows "http://ns.adobe.com/Flows/1.0/">
]><svg xmlns="http://www.w3.org/2000/svg" width="16" height="16" viewBox="0 -1 16 16" preserveAspectRatio="xMinYMid meet" overflow="visible" enable-background="new 0 -1 16 16"><path d="M10 12h6v2h-6v-2zm-2 2v-2H6v2h2zm0-4h8V8H8v2zM4 8v2h2V8H4zm2-2h10V4H6v2zM2 4v2h2V4H2zm2-4v2h12V0H4zM2 0H0v2h2V0z" fill="#999"/></svg>
